assets/icons/functional/system&devices/qr-code.svg

<svg width="32" height="32" viewBox="0 0 32 32" fill="none" xmlns="http://www.w3.org/2000/svg"><g id="Icon-QrCode"><g clip-path="url(#clip0_9_2396)"><g id="size=md (32px)"><g id="QrCode"><path id="Vector" d="M13 6H7C6.44772 6 6 6.44772 6 7V13C6 13.5523 6.44772 14 7 14H13C13.5523 14 14 13.5523 14 13V7C14 6.44772 13.5523 6 13 6Z" stroke="#101828" stroke-width="2" stroke-linecap="round" stroke-linejoin="round"/><path id="Vector_2" d="M13 18H7C6.44772 18 6 18.4477 6 19V25C6 25.5523 6.44772 26 7 26H13C13.5523 26 14 25.5523 14 25V19C14 18.4477 13.5523 18 13 18Z" stroke="#101828" stroke-width="2" stroke-linecap="round" stroke-linejoin="round"/><path id="Vector_3" d="M25 6H19C18.4477 6 18 6.44772 18 7V13C18 13.5523 18.4477 14 19 14H25C25.5523 14 26 13.5523 26 13V7C26 6.44772 25.5523 6 25 6Z" stroke="#101828" stroke-width="2" stroke-linecap="round" stroke-linejoin="round"/><path id="Vector_4" d="M18 18V22" stroke="#101828" stroke-width="2" stroke-linecap="round" stroke-linejoin="round"/><path id="Vector_5" d="M18 26H22V18" stroke="#101828" stroke-width="2" stroke-linecap="round" stroke-linejoin="round"/><path id="Vector_6" d="M22 20H26" stroke="#101828" stroke-width="2" stroke-linecap="round" stroke-linejoin="round"/><path id="Vector_7" d="M26 24V26" stroke="#101828" stroke-width="2" stroke-linecap="round" stroke-linejoin="round"/></g></g></g></g><defs><clipPath id="clip0_9_2396"><rect width="32" height="32" rx="5" fill="white"/></clipPath></defs></svg>

<svg xmlns="http://www.w3.org/2000/svg" width="32" height="32" fill="none"><path stroke="#101828" stroke-linecap="round" stroke-linejoin="round" stroke-width="2" d="M13 6H7a1 1 0 0 0-1 1v6a1 1 0 0 0 1 1h6a1 1 0 0 0 1-1V7a1 1 0 0 0-1-1Zm0 12H7a1 1 0 0 0-1 1v6a1 1 0 0 0 1 1h6a1 1 0 0 0 1-1v-6a1 1 0 0 0-1-1ZM25 6h-6a1 1 0 0 0-1 1v6a1 1 0 0 0 1 1h6a1 1 0 0 0 1-1V7a1 1 0 0 0-1-1Zm-7 12v4m0 4h4v-8m0 2h4m0 4v2"/></svg>
